!!!COM:      Bach, Johann Sebastian
!!!CDT:      1685/03/31/-1750/07/28/
!!!OPR@@GER: Das wohltemperirte Clavier
!!!OVM@@GER: Band II
!!!OPR@ENG:  Well-Tempered Clavier
!!!OVM@ENG:  Book II
!!!OTL:      Prelude
!!!OKY:      F major
!!!ONM:      no. 11
!!!SCT:      BWV 880
!!!OMV:      1
**kern	**kern	**kern	**kern	**kern	**kern
*clefF4	*clefF4	*	*	*	*clefG2
*k[b-]	*k[b-]	*	*	*	*k[b-]
*F:	*F:	*	*	*	*F:
*M3/2	*M3/2	*	*	*	*M3/2
*MM120	*MM120	*MM120	*MM120	*MM120	*MM120
=1-	=1-	=1-	=1-	=1-	=1-
2FF	2r	1.ryy	1.ryy	1.ryy	8r
.	.	.	.	.	8ee
.	.	.	.	.	8ff
.	.	.	.	.	8gg
[1F	2r	.	.	.	8ff
.	.	.	.	.	8ee
.	.	.	.	.	8dd
.	.	.	.	.	8cc
.	2A	.	.	.	8dd
.	.	.	.	.	8cc
.	.	.	.	.	8b-
.	.	.	.	.	8a
=2	=2	=2	=2	=2	=2
*	*	*	*staff:14	*staff:14	*
*	*	*	*clefG2	*clefG2	*
*	*	*	*k[b-]	*k[b-]	*
1.F_	2d	1.ryy	2ryy	8r	[1.b-
.	.	.	.	8a	.
.	.	.	.	8g	.
.	.	.	.	8f	.
.	2B-	.	8r	[1g	.
.	.	.	8f	.	.
.	.	.	8e	.	.
.	.	.	8d	.	.
.	8G	.	[2e	.	.
.	8B-	.	.	.	.
.	8c	.	.	.	.
.	8d	.	.	.	.
=3	=3	=3	=3	=3	=3
2F_	8c	1.ryy	2e]	2g]	2b-]
.	8B-	.	.	.	.
.	8A	.	.	.	.
.	8G	.	.	.	.
8F]	2A	.	2c	2f	2a
8G	.	.	.	.	.
8F	.	.	.	.	.
8E	.	.	.	.	.
8F	[2F	.	2d	2f	[2a-
8D	.	.	.	.	.
8C	.	.	.	.	.
8BBn	.	.	.	.	.
=4	=4	=4	=4	=4	=4
[1C	8F]	1.ryy	4c	4f	8a-]
.	8F	.	.	.	8a-
.	8E	.	4ryy	4r	8g
.	8D	.	.	.	8f
.	4E	.	1ryy	8r	1g
.	.	.	.	8f	.
.	4G	.	.	8e	.
.	.	.	.	8d	.
8C]	4c	.	.	2e	.
8D	.	.	.	.	.
8C	[4G	.	.	.	.
8BB-	.	.	.	.	.
=5	=5	=5	=5	=5	=5
2AA	4G]	1.ryy	8r	2r	2r
.	.	.	8c	.	.
.	4G	.	8d	.	.
.	.	.	8e-	.	.
1D	4F#	.	[1d	8r	2r
.	.	.	.	8en	.
.	4B-	.	.	8f#	.
.	.	.	.	8g	.
.	[2A	.	.	[2f#	8r
.	.	.	.	.	8a
.	.	.	.	.	8b-
.	.	.	.	.	[8cc
=6	=6	=6	=6	=6	=6
2GG	4A]	1.ryy	2d]	8f#]	2cc_
.	.	.	.	8a	.
.	2D	.	.	8g	.
.	.	.	.	8f#	.
2BB-	.	.	2ryy	4.g	8cc]
.	.	.	.	.	8a
.	2G	.	.	.	[4b-
.	.	.	.	8g	.
2GG	.	.	2ryy	8d	2b-_
.	.	.	.	8fn	.
.	[4G	.	.	8e	.
.	.	.	.	8d	.
=7	=7	=7	=7	=7	=7
2C	8G]	1.ryy	2ryy	2e	1b-_
.	8B-	.	.	.	.
.	8c	.	.	.	.
.	8d-	.	.	.	.
2E	[1c	.	8r	2ryy	.
.	.	.	8dn	.	.
.	.	.	8e	.	.
.	.	.	8f	.	.
2C	.	.	[2e	2ryy	8b-]
.	.	.	.	.	8g
.	.	.	.	.	8a
.	.	.	.	.	[8b-
=8	=8	=8	=8	=8	=8
2F	1c_	1.ryy	8e]	1.ryy	2b-_
.	.	.	8g	.	.
.	.	.	8f	.	.
.	.	.	8e	.	.
2A	.	.	4.f	.	8b-]
.	.	.	.	.	8g
.	.	.	.	.	[4a
.	.	.	[8f	.	.
2F	8c]	.	2f_	.	2a_
.	8e-	.	.	.	.
.	8d	.	.	.	.
.	8c	.	.	.	.
=9	=9	=9	=9	=9	=9
4B-	2d	1.ryy	2f]	2ryy	8a]
.	.	.	.	.	8cc
4A	.	.	.	.	8dd
.	.	.	.	.	8ee-
[1B-	4r	.	4r	8r	1dd
.	.	.	.	8cc	.
.	2.d	.	[4g	8b-	.
.	.	.	.	8a	.
.	.	.	8g]	2b-	.
.	.	.	8a	.	.
.	.	.	8g	.	.
.	.	.	8f	.	.
=10	=10	=10	=10	=10	=10
8B-]	4c	1.ryy	1g	1cc	1een
8B-	.	.	.	.	.
8c	4ryy	.	.	.	.
8d	.	.	.	.	.
8c	2ryy	.	.	.	.
8B-	.	.	.	.	.
8A	.	.	.	.	.
8G	.	.	.	.	.
8A	2ryy	.	2f	2cc	[2ff
8G	.	.	.	.	.
8F	.	.	.	.	.
8E	.	.	.	.	.
=11	=11	=11	=11	=11	=11
2.D	4r	1.ryy	4r	1.ryy	8ff]
.	.	.	.	.	8ee
.	[2.A	.	4A	.	8ff
.	.	.	.	.	8gg
.	.	.	[1d	.	8ff
.	.	.	.	.	8ee
4E	.	.	.	.	8dd
.	.	.	.	.	8cc
[2F	2A]	.	.	.	8dd
.	.	.	.	.	8cc
.	.	.	.	.	8bn
.	.	.	.	.	8a
=12	=12	=12	=12	=12	=12
2F]	2G	1.ryy	2d_	8r	1bn
.	.	.	.	8a	.
.	.	.	.	8g	.
.	.	.	.	8f	.
2r	2r	.	8d]	[2g	.
.	.	.	8f	.	.
.	.	.	8e	.	.
.	.	.	8d	.	.
[2E	8r	.	[2e	2g]	[2cc
.	8Bn	.	.	.	.
.	8c	.	.	.	.
.	8d	.	.	.	.
=13	=13	=13	=13	=13	=13
2E_	8c	1.ryy	2e]	2g	2.cc]
.	8Bn	.	.	.	.
.	8A	.	.	.	.
.	8G	.	.	.	.
8E]	[1A	.	[1f	1ryy	.
8G	.	.	.	.	.
8F	.	.	.	.	4cc
8E	.	.	.	.	.
8F	.	.	.	.	4dd
8E	.	.	.	.	.
8D	.	.	.	.	4ff
8C	.	.	.	.	.
=14	=14	=14	=14	=14	=14
8D	2A]	1.ryy	2f_	1.ryy	4bn
8C	.	.	.	.	.
8BBn	.	.	.	.	4cc
8AA	.	.	.	.	.
4BB	1G	.	8f]	.	[2dd
.	.	.	8f	.	.
4GG	.	.	8e	.	.
.	.	.	8d	.	.
4C	.	.	[2e	.	8dd]
.	.	.	.	.	8g
4BBn	.	.	.	.	8a
.	.	.	.	.	8bn
=15	=15	=15	=15	=15	=15
4AA	4A	1.ryy	8e]	1ryy	[1cc
.	.	.	8e	.	.
4GG	4r	.	8f	.	.
.	.	.	8g	.	.
4FF	2r	.	8a	.	.
.	.	.	8g	.	.
4DD	.	.	8f	.	.
.	.	.	8e	.	.
2GG	4r	.	2d	8r	4cc]
.	.	.	.	[4.f	.
.	[4G	.	.	.	8cc
.	.	.	.	.	8bn
=16	=16	=16	=16	=16	=16
2C	2G]	1.ryy	2c	8f]	[1.cc
.	.	.	.	8f	.
.	.	.	.	8g	.
.	.	.	.	8a	.
2r	2ryy	.	8r	1g	.
.	.	.	8f	.	.
.	.	.	8e	.	.
.	.	.	8d	.	.
2r	8r	.	[2e	.	.
.	8d	.	.	.	.
.	8c	.	.	.	.
.	8Bn	.	.	.	.
=17	=17	=17	=17	=17	=17
2r	4c	1.ryy	2e]	1.ryy	8cc]
.	.	.	.	.	8bn
.	4G	.	.	.	8cc
.	.	.	.	.	8dd
[1C	4A	.	2r	.	8cc
.	.	.	.	.	8bn
.	4E	.	.	.	8a
.	.	.	.	.	8g
.	4F	.	2r	.	8a
.	.	.	.	.	8g
.	4A	.	.	.	8f
.	.	.	.	.	8e
=18	=18	=18	=18	=18	=18
1.C_	4D	1.ryy	2ryy	8r	[1.f
.	.	.	.	8e	.
.	4E	.	.	8d	.
.	.	.	.	8c	.
.	[2F	.	8r	[1d	.
.	.	.	8c	.	.
.	.	.	8Bn	.	.
.	.	.	8A	.	.
.	8F]	.	[2B	.	.
.	8F	.	.	.	.
.	8G	.	.	.	.
.	8A	.	.	.	.
=19	=19	=19	=19	=19	=19
2C_	8G	1.ryy	2B]	2d]	2f]
.	8F	.	.	.	.
.	8E	.	.	.	.
.	8D	.	.	.	.
8C]	2E	.	2G	2c	2e
8D	.	.	.	.	.
8C	.	.	.	.	.
8BBn	.	.	.	.	.
8C	[2C	.	2A	2c	[2e-
8AA	.	.	.	.	.
8GG	.	.	.	.	.
8FF#	.	.	.	.	.
=20	=20	=20	=20	=20	=20
[1GG	8C]	1.ryy	4G	4c	8e-]
.	8C	.	.	.	8e-X
.	8BBn	.	4ryy	4r	8d
.	8AA	.	.	.	8c
.	4BB	.	1ryy	8r	1d
.	.	.	.	8c	.
.	4D	.	.	8Bn	.
.	.	.	.	8A	.
8GG]	4G	.	.	2B	.
8AA	.	.	.	.	.
8GG	[4D	.	.	.	.
8FF	.	.	.	.	.
=21	=21	=21	=21	=21	=21
2EE	2D]	1.ryy	8r	2r	2r
.	.	.	8G	.	.
.	.	.	8A	.	.
.	.	.	8B-X	.	.
1AA	4C#	.	[1A	8r	2r
.	.	.	.	8Bn	.
.	4F	.	.	8c#	.
.	.	.	.	8d	.
.	[2E	.	.	[2c#	8r
.	.	.	.	.	8e
.	.	.	.	.	8f
.	.	.	.	.	[8g
=22	=22	=22	=22	=22	=22
2DD	4E]	1.ryy	2A]	8c#]	2g_
.	.	.	.	8e	.
.	2AA	.	.	8d	.
.	.	.	.	8c#	.
2FF	.	.	2ryy	4.d	8g]
.	.	.	.	.	8e
.	2D	.	.	.	[4f
.	.	.	.	8d	.
2DD	.	.	2ryy	8A	2f_
.	.	.	.	8cn	.
.	[4D	.	.	8Bn	.
.	.	.	.	8A	.
=23	=23	=23	=23	=23	=23
2GG	8D]	1.ryy	2ryy	2Bn	1f_
.	8F	.	.	.	.
.	8G	.	.	.	.
.	8A-	.	.	.	.
2BBn	[1G	.	8r	2ryy	.
.	.	.	8An	.	.
.	.	.	8Bn	.	.
.	.	.	8c	.	.
2GG	.	.	[2B	2ryy	8f]
.	.	.	.	.	8d
.	.	.	.	.	8e
.	.	.	.	.	[8f
=24	=24	=24	=24	=24	=24
2C	1G_	1.ryy	8B]	1.ryy	2f_
.	.	.	8d	.	.
.	.	.	8c	.	.
.	.	.	8Bn	.	.
2E	.	.	4.c	.	8f]
.	.	.	.	.	8d
.	.	.	.	.	[4e
.	.	.	[8c	.	.
2C	8G]	.	2c_	.	2e_
.	8B-	.	.	.	.
.	8A	.	.	.	.
.	8G	.	.	.	.
=25	=25	=25	=25	=25	=25
*	*	*	*	*staff:4	*
4F	2A	1.ryy	2c]	2ryy	8e]
.	.	.	.	.	8g
4E	.	.	.	.	8a
.	.	.	.	.	8b-
[1F	4r	.	4r	8r	1a
.	.	.	.	8g	.
.	2.A	.	[4d	8f	.
.	.	.	.	8e	.
.	.	.	8d]	2f	.
.	.	.	8e	.	.
.	.	.	8d	.	.
.	.	.	8c	.	.
=26	=26	=26	=26	=26	=26
8F]	4G	1.ryy	1d	1g	1bn
8F	.	.	.	.	.
8G	4ryy	.	.	.	.
8A	.	.	.	.	.
8G	2ryy	.	.	.	.
8F	.	.	.	.	.
8E	.	.	.	.	.
8D	.	.	.	.	.
8E	2ryy	.	[2c	2g	[2cc
8D	.	.	.	.	.
8C	.	.	.	.	.
8BB-X	.	.	.	.	.
=27	=27	=27	=27	=27	=27
8AA	1.ryy	1.ryy	4c]	4f	8cc]
8E	.	.	.	.	8cc
8F	.	.	4r	4r	8dd
8G	.	.	.	.	8ee-
8F	.	.	2ryy	8r	1dd
8E-	.	.	.	8cc	.
8D	.	.	.	8b-	.
8C	.	.	.	8a	.
8D	.	.	8r	2b-	.
8C	.	.	8a	.	.
8BB-	.	.	8g	.	.
8AA	.	.	8f	.	.
=28	=28	=28	=28	=28	=28
8GG	1.ryy	1.ryy	1g	1b-	1een
8B-	.	.	.	.	.
8c	.	.	.	.	.
8d	.	.	.	.	.
8c	.	.	.	.	.
8B-	.	.	.	.	.
8A	.	.	.	.	.
8G	.	.	.	.	.
8A	.	.	4f	4cc	[2ff
8G	.	.	.	.	.
8F	.	.	4r	4r	.
8E	.	.	.	.	.
=29	=29	=29	=29	=29	=29
8D	2r	1.ryy	1.ryy	1.ryy	8ff]
8A	.	.	.	.	8ff
8B-	.	.	.	.	8gg
8c	.	.	.	.	8aa
8B-	2r	.	.	.	8gg
8A	.	.	.	.	8ff
8G	.	.	.	.	8ee
8F	.	.	.	.	8dd
[2G	8r	.	.	.	8ee
.	8f	.	.	.	8dd
.	8e	.	.	.	8cc#
.	8d	.	.	.	8bn
=30	=30	=30	=30	=30	=30
*	*	*	*staff:2	*staff:2	*
1G]	2e	1.ryy	2ryy	8r	1cc#
.	.	.	.	8b-X	.
.	.	.	.	8a	.
.	.	.	.	8g	.
.	2ryy	.	8r	[2a	.
.	.	.	8g	.	.
.	.	.	8f	.	.
.	.	.	8e	.	.
[2F	8r	.	[2f	2a]	[2dd
.	8c#	.	.	.	.
.	8d	.	.	.	.
.	8e	.	.	.	.
=31	=31	=31	=31	=31	=31
2F]	8d	1.ryy	4f]	4a	4dd]
.	8cn	.	.	.	.
.	8B-	.	4a	4ryy	4ff
.	8A	.	.	.	.
8r	2B-	.	4g	1ryy	4ee
8A	.	.	.	.	.
8G	.	.	4b-	.	4gg
8F	.	.	.	.	.
8G	[2A	.	4e	.	4cc#
8F	.	.	.	.	.
8E	.	.	[4f	.	[4dd
8D	.	.	.	.	.
=32	=32	=32	=32	=32	=32
4A	2A_	1.ryy	8f]	2ryy	8dd]
.	.	.	8f	.	8dd
[4AA	.	.	8e	.	8cc#
.	.	.	8d	.	8bn
4AA]	8A]	.	1e	1a	1cc#
.	8G	.	.	.	.
4r	8A	.	.	.	.
.	8B-	.	.	.	.
2ryy	8A	.	.	.	.
.	8G	.	.	.	.
.	8F	.	.	.	.
.	8E	.	.	.	.
=33	=33	=33	=33	=33	=33
1.F	2r	1.ryy	1.ryy	1.ryy	8r
.	.	.	.	.	8cc#
.	.	.	.	.	8dd
.	.	.	.	.	8ee
.	2A	.	.	.	8dd
.	.	.	.	.	8ccn
.	.	.	.	.	8b-
.	.	.	.	.	8a
.	[2d	.	.	.	8b-
.	.	.	.	.	8a
.	.	.	.	.	8g
.	.	.	.	.	8f
=34	=34	=34	=34	=34	=34
1E	4d]	1.ryy	1.ryy	8r	[1.g
.	.	.	.	8f	.
.	4r	.	.	8e	.
.	.	.	.	8d	.
.	8r	.	.	[1e	.
.	8d	.	.	.	.
.	8c#	.	.	.	.
.	8Bn	.	.	.	.
8r	[2c#	.	.	.	.
8G	.	.	.	.	.
8A	.	.	.	.	.
8B-	.	.	.	.	.
=35	=35	=35	=35	=35	=35
8A	2c#]	1.ryy	1.ryy	2e]	2g]
8G	.	.	.	.	.
8F	.	.	.	.	.
8E	.	.	.	.	.
8F	[1A	.	.	[1d	[1f
8E	.	.	.	.	.
8D	.	.	.	.	.
8C#X	.	.	.	.	.
8D	.	.	.	.	.
8Cn	.	.	.	.	.
8BBn	.	.	.	.	.
8AA	.	.	.	.	.
=36	=36	=36	=36	=36	=36
[2BBn	8A]	1.ryy	1.ryy	1.d_	1.f_
.	8c	.	.	.	.
.	8Bn	.	.	.	.
.	8A	.	.	.	.
8BB]	4G#	.	.	.	.
8C	.	.	.	.	.
8D	4A	.	.	.	.
8E	.	.	.	.	.
8D	[2Bn	.	.	.	.
8C	.	.	.	.	.
8BBn	.	.	.	.	.
8AA	.	.	.	.	.
=37	=37	=37	=37	=37	=37
1.GG#	8B]	1.ryy	1.ryy	2d]	2f]
.	8D	.	.	.	.
.	8E	.	.	.	.
.	8F	.	.	.	.
.	[1E	.	.	8r	2r
.	.	.	.	8A	.
.	.	.	.	8Bn	.
.	.	.	.	8c	.
.	.	.	.	2B	8r
.	.	.	.	.	8c#
.	.	.	.	.	8d
.	.	.	.	.	8e
=38	=38	=38	=38	=38	=38
[1GG	2E_	1.ryy	1.ryy	[2A	8c#
.	.	.	.	.	8e
.	.	.	.	.	8f
.	.	.	.	.	8g
.	8E]	.	.	8A]	[1a
.	8F	.	.	8Bn	.
.	8E	.	.	8c#X	.
.	8D	.	.	8d	.
8GG]	[2C#	.	.	[2e	.
8BB-X	.	.	.	.	.
8AA	.	.	.	.	.
8GG	.	.	.	.	.
=39	=39	=39	=39	=39	=39
2FF	4C#]	1.ryy	1.ryy	4e]	8a]
.	.	.	.	.	8g
.	4D	.	.	[4d	8b-
.	.	.	.	.	8a
2GG	4E	.	.	4.d]	8g
.	.	.	.	.	8f
.	4F	.	.	.	[4e
.	.	.	.	8d	.
2AA	4G	.	.	2c#	8e]
.	.	.	.	.	8e
.	4A	.	.	.	8f
.	.	.	.	.	[8g
=40	=40	=40	=40	=40	=40
[1.D	4B-	1.ryy	1.ryy	[2d	8g]
.	.	.	.	.	8g
.	8A	.	.	.	8f
.	8G	.	.	.	8e
.	[2A	.	.	8d]	[1f
.	.	.	.	8e	.
.	.	.	.	8d	.
.	.	.	.	8c#	.
.	8A]	.	.	[2d	.
.	8cn	.	.	.	.
.	8B-	.	.	.	.
.	8A	.	.	.	.
=41	=41	=41	=41	=41	=41
8D]	2.B-	1.ryy	1.ryy	2d_	8f]
8D	.	.	.	.	8f
8E	.	.	.	.	8g
8F	.	.	.	.	8a
4G	.	.	.	8d]	[1b-
.	.	.	.	8d	.
[4F	4A	.	.	8e	.
.	.	.	.	8f	.
8F]	[2G	.	.	4g	.
8E	.	.	.	.	.
8D	.	.	.	4e	.
8C	.	.	.	.	.
=42	=42	=42	=42	=42	=42
4F	4G]	1.ryy	1.ryy	[2c	8b-]
.	.	.	.	.	8b-
4FF	8F	.	.	.	8a
.	8E	.	.	.	8g
[1F	4F	.	.	8c]	[1a
.	.	.	.	8g	.
.	[4A	.	.	8f	.
.	.	.	.	8e	.
.	8A]	.	.	[2f	.
.	8e	.	.	.	.
.	8d	.	.	.	.
.	8c#	.	.	.	.
=43	=43	=43	=43	=43	=43
8F]	2.d	1.ryy	1.ryy	2f_	8a]
8F	.	.	.	.	8a
8G	.	.	.	.	8b-
8A	.	.	.	.	8cc
4B-	.	.	.	8f]	[1dd
.	.	.	.	8f	.
[4A	4c	.	.	8g	.
.	.	.	.	8a	.
8A]	[2B-	.	.	4b-	.
8G	.	.	.	.	.
8F	.	.	.	4g	.
8E	.	.	.	.	.
=44	=44	=44	=44	=44	=44
4A	4B-]	1.ryy	1.ryy	[2e	8dd]
.	.	.	.	.	8dd
4AA	8A	.	.	.	8cc
.	8G	.	.	.	8b-
[1A	4A	.	.	8e]	[1cc
.	.	.	.	8b-	.
.	[4c	.	.	8a	.
.	.	.	.	8g	.
.	8c]	.	.	[2a	.
.	8g	.	.	.	.
.	8f	.	.	.	.
.	8e	.	.	.	.
=45	=45	=45	=45	=45	=45
8A]	2.f	1.ryy	1.ryy	2a_	8cc]
8A	.	.	.	.	8cc
8Bn	.	.	.	.	8dd
8c	.	.	.	.	8ee
4d	.	.	.	8a]	[1ff
.	.	.	.	8a	.
[4c	4e	.	.	8bn	.
.	.	.	.	8cc	.
8c]	[2d	.	.	4dd	.
8Bn	.	.	.	.	.
8A	.	.	.	4bn	.
8G	.	.	.	.	.
=46	=46	=46	=46	=46	=46
*	*	*	*staff:10	*	*
4c	4d]	1.ryy	1ryy	[2g	8ff]
.	.	.	.	.	8ff
4C	8c	.	.	.	8ee
.	8Bn	.	.	.	8dd
[2c	2c	.	.	8g]	[1ee
.	.	.	.	8dd	.
.	.	.	.	8cc	.
.	.	.	.	8bn	.
2c]	2ryy	.	8r	2cc	.
.	.	.	8bn	.	.
.	.	.	8a	.	.
.	.	.	8g#	.	.
=47	=47	=47	=47	=47	=47
8r	1.ryy	1.ryy	2a	2cc	2ee]
8e	.	.	.	.	.
8f	.	.	.	.	.
8g	.	.	.	.	.
8f	.	.	1a	1bn	[1dd
8e	.	.	.	.	.
8d	.	.	.	.	.
8c	.	.	.	.	.
8d	.	.	.	.	.
8c	.	.	.	.	.
8Bn	.	.	.	.	.
8A	.	.	.	.	.
=48	=48	=48	=48	=48	=48
*	*staff:7	*	*	*	*
8Bn	2r	1.ryy	1.g#	1.b	1.dd_
8A	.	.	.	.	.
8G#	.	.	.	.	.
8F#	.	.	.	.	.
8G#	[1e	.	.	.	.
8D	.	.	.	.	.
8E	.	.	.	.	.
8Fn	.	.	.	.	.
8E	.	.	.	.	.
8D	.	.	.	.	.
8C	.	.	.	.	.
8BBn	.	.	.	.	.
=49	=49	=49	=49	=49	=49
[1.C	4e]	1.ryy	8g#	8b	8dd]
.	.	.	8r	8ryy	8dd
.	4E	.	4r	4ryy	8ee
.	.	.	.	.	8ff
.	4F#	.	2r	1ryy	8ee
.	.	.	.	.	8dd
.	4G#	.	.	.	8cc
.	.	.	.	.	8bn
.	4A	.	2r	.	8cc
.	.	.	.	.	8b
.	4Bn	.	.	.	8a
.	.	.	.	.	8g#
=50	=50	=50	=50	=50	=50
4C]	4c	1.ryy	8r	1.ryy	[1.a
.	.	.	8gn	.	.
4C#	2A	.	8f	.	.
.	.	.	8e	.	.
4D	.	.	8f	.	.
.	.	.	8e	.	.
4E	4c#X	.	8f	.	.
.	.	.	8g	.	.
4F	4d	.	8f	.	.
.	.	.	8e	.	.
4G	[4A	.	8d	.	.
.	.	.	8c#	.	.
=51	=51	=51	=51	=51	=51
[1.F	4A]	1.ryy	8d	1.ryy	8a]
.	.	.	8r	.	8gg
.	4A	.	4r	.	8aa
.	.	.	.	.	8bb-
.	4Bn	.	2r	.	8aa
.	.	.	.	.	8gg
.	4c#	.	.	.	8ff
.	.	.	.	.	8ee
.	4d	.	2r	.	8ff
.	.	.	.	.	8ee
.	4e	.	.	.	8dd
.	.	.	.	.	8cc#
=52	=52	=52	=52	=52	=52
8F]	8f	1.ryy	1.ryy	1.ryy	8dd
8G	8r	.	.	.	8ee
8A	4r	.	.	.	8ff
8B-	.	.	.	.	8gg
8A	2r	.	.	.	8ff
8G	.	.	.	.	8ee
8F	.	.	.	.	8dd
8E	.	.	.	.	8cc#
8F	2r	.	.	.	8dd
8E	.	.	.	.	8ccn
8D	.	.	.	.	8b-
8C#	.	.	.	.	8a
=53	=53	=53	=53	=53	=53
[1.D	4r	1.ryy	1.ryy	1.ryy	8b-
.	.	.	.	.	8cc
.	4F	.	.	.	8dd
.	.	.	.	.	8ee-
.	4B-	.	.	.	8dd
.	.	.	.	.	8cc
.	4c	.	.	.	8b-
.	.	.	.	.	8a
.	4d	.	.	.	8b-
.	.	.	.	.	8a
.	4c	.	.	.	8g#
.	.	.	.	.	8f#
=54	=54	=54	=54	=54	=54
*	*	*	*	*staff:6	*
8D]	4Bn	1.ryy	2ryy	1ryy	4g#
8D	.	.	.	.	.
8E	[4e	.	.	.	4e
8F	.	.	.	.	.
8E	2e_	.	[2g#	.	4r
8D	.	.	.	.	.
8C	.	.	.	.	4bn
8BBn	.	.	.	.	.
8C	2e_	.	2g#]	2b	[2dd
8BB	.	.	.	.	.
8AA	.	.	.	.	.
8GG#	.	.	.	.	.
=55	=55	=55	=55	=55	=55
*	*	*staff:3	*	*	*
*	*	*clefF4	*	*	*
*	*	*k[b-]	*	*	*
8AA	4e]	2r	4g#	4bn	4dd]
8FF	.	.	.	.	.
8EE	4ryy	.	4f#	4a	[4cc
8DD#	.	.	.	.	.
1EE	8r	1ryy	2e	[2a	8cc]
.	8AA	.	.	.	8cc
.	8BBn	.	.	.	8bn
.	8C	.	.	.	8a
.	4Dn	.	4.e	8a]	2b
.	.	.	.	8f#X	.
.	4E	.	.	4g#X	.
.	.	.	[8d	.	.
=56	=56	=56	=56	=56	=56
[1AA	4F	2ryy	8d]	1.ryy	1.a
.	.	.	8d	.	.
.	4D	.	8e	.	.
.	.	.	8f	.	.
.	2F	4r	8e	.	.
.	.	.	8d	.	.
.	.	4G#	8c#	.	.
.	.	.	8Bn	.	.
8AA]	2E	2A	2c#	.	.
8BB-X	.	.	.	.	.
8AA	.	.	.	.	.
8GGn	.	.	.	.	.
=57	=57	=57	=57	=57	=57
2FF	2r	1.ryy	1.ryy	1.ryy	8r
.	.	.	.	.	8ee
.	.	.	.	.	8ff
.	.	.	.	.	8gg
[1F	2r	.	.	.	8ff
.	.	.	.	.	8ee
.	.	.	.	.	8dd
.	.	.	.	.	8cc
.	2A	.	.	.	8dd
.	.	.	.	.	8cc
.	.	.	.	.	8b-
.	.	.	.	.	8a
=58	=58	=58	=58	=58	=58
1.F_	2d	1.ryy	2ryy	8r	[1.b-
.	.	.	.	8a	.
.	.	.	.	8g	.
.	.	.	.	8f	.
.	2B-	.	8r	1g	.
.	.	.	8f	.	.
.	.	.	8e	.	.
.	.	.	8d	.	.
.	8G	.	2e	.	.
.	8B-	.	.	.	.
.	8c	.	.	.	.
.	8d	.	.	.	.
=59	=59	=59	=59	=59	=59
2F_	8c	1.ryy	2e	2g	2b-]
.	8B-	.	.	.	.
.	8A	.	.	.	.
.	8G	.	.	.	.
8F]	2A	.	2c	2f	2a
8G	.	.	.	.	.
8F	.	.	.	.	.
8E	.	.	.	.	.
8F	[2F	.	2d	2f	[2a-
8D	.	.	.	.	.
8C	.	.	.	.	.
8BBn	.	.	.	.	.
=60	=60	=60	=60	=60	=60
[1C	8F]	1.ryy	4c	4f	8a-]
.	8F	.	.	.	8a-
.	8E	.	4ryy	4r	8g
.	8D	.	.	.	8f
.	4E	.	1ryy	8r	1g
.	.	.	.	8f	.
.	4G	.	.	8e	.
.	.	.	.	8d	.
8C]	4c	.	.	2e	.
8D	.	.	.	.	.
8C	[4G	.	.	.	.
8BB-	.	.	.	.	.
=61	=61	=61	=61	=61	=61
2AA	4G]	1.ryy	8r	2r	2r
.	.	.	8c	.	.
.	4G	.	8d	.	.
.	.	.	8e-	.	.
1D	4F#	.	[1d	8r	2r
.	.	.	.	8en	.
.	4B-	.	.	8f#	.
.	.	.	.	8g	.
.	[2A	.	.	[2f#	8r
.	.	.	.	.	8a
.	.	.	.	.	8b-
.	.	.	.	.	[8cc
=62	=62	=62	=62	=62	=62
2GG	4A]	1.ryy	1d]	8f#]	2cc_
.	.	.	.	8a	.
.	2D	.	.	8g	.
.	.	.	.	8f#	.
2BB-	.	.	.	4.g	8cc]
.	.	.	.	.	8a
.	[4G	.	.	.	[4b-
.	.	.	.	[8g	.
2D	8G]	.	2d	2g_	2b-_
.	8F#	.	.	.	.
.	8G	.	.	.	.
.	8A	.	.	.	.
=63	=63	=63	=63	=63	=63
2G	4B-	1.ryy	8d	8g]	8b-]
.	.	.	8r	8ryy	8g
.	4r	.	4r	4ryy	8a
.	.	.	.	.	8b-
2A	2ryy	.	4r	[2cc	8r
.	.	.	.	.	8dd
.	.	.	8r	.	[4ee-
.	.	.	8b-	.	.
8F	2ryy	.	[2a	2cc]	2ee-_
8g	.	.	.	.	.
8f	.	.	.	.	.
8e-	.	.	.	.	.
=64	=64	=64	=64	=64	=64
8d	1.ryy	1.ryy	2a]	2cc	2ee-]
8c	.	.	.	.	.
8B-	.	.	.	.	.
8A	.	.	.	.	.
8B-	.	.	[1f	4b-	4dd
8D	.	.	.	.	.
8E-	.	.	.	4a	4cc
8F	.	.	.	.	.
8E-	.	.	.	4b-	[2dd
8D	.	.	.	.	.
8C	.	.	.	[4a-	.
8BB-	.	.	.	.	.
=65	=65	=65	=65	=65	=65
4E-	1.ryy	1.ryy	8f]	8a-]	2dd]
.	.	.	8r	8f	.
4D	.	.	4r	8g	.
.	.	.	.	8a-	.
[1E-	.	.	8r	1g	[2cc
.	.	.	8f	.	.
.	.	.	8e-	.	.
.	.	.	8d	.	.
.	.	.	8e-	.	4cc]
.	.	.	8d	.	.
.	.	.	8c	.	8dd
.	.	.	8B-	.	8ee-X
=66	=66	=66	=66	=66	=66
.	.	.	.	.	8b-Q
8E-]	1.ryy	1.ryy	1c	[1f	1a
8E-	.	.	.	.	.
8F	.	.	.	.	.
8G	.	.	.	.	.
8F	.	.	.	.	.
8E-X	.	.	.	.	.
8D	.	.	.	.	.
8C	.	.	.	.	.
8D	.	.	4B-	4f]	[2b-
8C	.	.	.	.	.
8BB-	.	.	4r	4r	.
8AA	.	.	.	.	.
=67	=67	=67	=67	=67	=67
2.GG	1.ryy	4r	1.ryy	1.ryy	8b-]
.	.	.	.	.	8a
.	.	4D	.	.	8b-
.	.	.	.	.	8cc
.	.	[1G	.	.	8b-
.	.	.	.	.	8a
4AA	.	.	.	.	8g
.	.	.	.	.	8f
[2BB-	.	.	.	.	8g
.	.	.	.	.	8f
.	.	.	.	.	8en
.	.	.	.	.	8d
=68	=68	=68	=68	=68	=68
2BB-]	1ryy	2G_	8r	1.ryy	1e
.	.	.	8d	.	.
.	.	.	8c	.	.
.	.	.	8B-	.	.
2r	.	8G]	[2c	.	.
.	.	8B-	.	.	.
.	.	8A	.	.	.
.	.	8G	.	.	.
[2AA	8r	[2A	2c_	.	[2f
.	8E	.	.	.	.
.	8F	.	.	.	.
.	8G	.	.	.	.
=69	=69	=69	=69	=69	=69
2AA_	8F	2A]	2c]	1.ryy	2f_
.	8E	.	.	.	.
.	8D	.	.	.	.
.	8C	.	.	.	.
8AA]	[1D	2ryy	[1B-	.	4f]
8C	.	.	.	.	.
8BB-	.	.	.	.	4f
8AA	.	.	.	.	.
8BB-	.	2ryy	.	.	4g
8AA	.	.	.	.	.
8GG	.	.	.	.	8a
8FF	.	.	.	.	8b-
=70	=70	=70	=70	=70	=70
8GG	2D]	1.ryy	2B-_	1.ryy	4e
8FF	.	.	.	.	.
8EE	.	.	.	.	4f
8DD	.	.	.	.	.
4EE	[1C	.	8B-]	.	[2g
.	.	.	8B-	.	.
4CC	.	.	8A	.	.
.	.	.	8G	.	.
4FF	.	.	[2A	.	8g]
.	.	.	.	.	8c
4EE	.	.	.	.	8d
.	.	.	.	.	8e
=71	=71	=71	=71	=71	=71
*	*	*	*	*staff:2	*
2DD	4C]	1.ryy	8A]	1ryy	[1f
.	.	.	8A	.	.
.	4C	.	8B-	.	.
.	.	.	8c	.	.
4r	2BB-	.	8d	.	.
.	.	.	8c	.	.
4GG	.	.	8B-	.	.
.	.	.	8A	.	.
4C	[2C	.	2G	8r	4f]
.	.	.	.	[4.B-	.
4CC	.	.	.	.	8f
.	.	.	.	.	8e
=72	=72	=72	=72	=72	=72
1.FF	1.C]	1.ryy	[2F	8B-]	1.f;
.	.	.	.	8B-	.
.	.	.	.	8A	.
.	.	.	.	8G	.
.	.	.	8F]	1A;	.
.	.	.	8G	.	.
.	.	.	8F	.	.
.	.	.	8E	.	.
.	.	.	2F;	.	.
==	==	==	==	==	==
*-	*-	*-	*-	*-	*-
!!!AFR:  prelude
!!!EFL:  69/96
!!!END:  1994/02/09/
!!!VID:  793218609 Bach, BWV 880-01
!!!AST:  Baroque
!!!OCY:  Deutschland
!!!ODT:  1742///
!!!PDT:  1801///
!!!EED:  Walter Hewlett
!!!ENC:  Walter Hewlett
!!!YOR:  Bach Gesellschaft Edition xiv
!!!AFT:  enhanced SCORE
!!!RDT:  2011/10/07/ by Andreas Kornstaedt using massScr2hmd
!!!SCA1: Thematisch-systematisches Verzeichnis der musikalischen Werke 
!!!SCA2: Johann Sebastian Bach: Bach-Werke-Verzeichnis (Schmieder)
!!!YEC1: Copyright 1994, 2000 Center for Computer Assisted Research 
!!!YEC2: in the Humanities
!!!YEM1: Rights to all derivative editions reserved.
!!!YEM2: Refer to licensing agreement for further details.
!!!YEN:  United States of America
!!!ref:  @{OTL}, @{SCT}
!!muse2ps: T^@{OTL} @{ONM} in @{OKY}^C^J.S. Bach\n@{SCT}-@{OMV}^
!!muse2ps: u^@{OPR@ENG}, @{OVM@ENG}^j
